img/icons/svg/color/mnz.svg

<svg xmlns="http://www.w3.org/2000/svg" width="32" height="32" viewBox="0 0 32 32">
  <g fill="none">
    <circle cx="16" cy="16" r="16" fill="#7F368A"/>
    <path fill="#FFF" d="M25.5686356,21.3160162 C25.6342093,21.5788499 25.3719142,21.7102667 25.1751929,21.6445583 L24.3227339,21.6445583 L22.7489634,21.6445583 L22.2243733,21.6445583 L21.8965044,21.6445583 C21.6997831,21.6445583 21.5686356,21.5788499 21.437488,21.5131415 C21.2407667,21.4474331 21.1096192,21.1845994 21.0440454,20.9217657 L21.0440454,20.8560573 L17.9620782,9.48850084 C17.8965044,9.48850084 17.6997831,9.68562609 17.6342093,9.68562609 C17.5686356,9.75133451 17.437488,9.81704293 17.3719142,9.75133451 C17.2407667,9.68562609 17.1751929,9.48850084 17.2407667,9.357084 C17.3719142,9.0285419 17.6997831,8.83141665 18.0276519,8.76570823 C18.4210946,8.69999981 18.7489634,8.69999981 19.142406,8.69999981 C19.6669962,8.69999981 20.2571601,8.69999981 20.7817503,8.69999981 C21.0440454,8.69999981 21.3063405,8.69999981 21.5686356,8.69999981 C21.7653569,8.69999981 21.9620782,8.69999981 22.1587995,8.76570823 C22.3555208,8.89712507 22.4210946,9.15995874 22.4866683,9.357084 C22.6178159,9.81704293 22.6833897,10.2770019 22.8145372,10.7369608 C23.3391274,12.7082134 23.8637175,14.6794659 24.3883077,16.6507185 C24.585029,17.4392195 24.7817503,18.2277205 24.9784716,19.0162216 C25.1751929,19.7390142 25.437488,20.5275152 25.5686356,21.3160162 Z M17.9620782,21.3160162 C18.0276519,21.5788499 17.7653569,21.7102667 17.5686356,21.6445583 L16.7161765,21.6445583 L15.142406,21.6445583 L14.6178159,21.6445583 L14.289947,21.6445583 C14.0932257,21.6445583 13.9620782,21.5788499 13.8309306,21.5131415 C13.6342093,21.4474331 13.5030618,21.1845994 13.437488,20.9217657 L13.437488,20.8560573 L10.3555208,9.48850084 C10.289947,9.48850084 10.0932257,9.68562609 10.0276519,9.68562609 C9.96207818,9.75133451 9.83093064,9.81704293 9.76535687,9.75133451 C9.63420933,9.68562609 9.56863556,9.48850084 9.63420933,9.357084 C9.76535687,9.0285419 10.0932257,8.83141665 10.4210946,8.76570823 C10.8145372,8.69999981 11.142406,8.69999981 11.5358487,8.69999981 C12.0604388,8.69999981 12.6506028,8.69999981 13.1751929,8.69999981 C13.437488,8.69999981 13.6997831,8.69999981 13.9620782,8.69999981 C14.1587995,8.69999981 14.3555208,8.69999981 14.5522421,8.76570823 C14.7489634,8.89712507 14.8145372,9.15995874 14.880111,9.357084 C15.0112585,9.81704293 15.0768323,10.2770019 15.2079798,10.7369608 C15.73257,12.7082134 16.2571601,14.6794659 16.7817503,16.6507185 C16.9784716,17.4392195 17.1751929,18.2277205 17.3719142,19.0162216 C17.5686356,19.7390142 17.8309306,20.5275152 17.9620782,21.3160162 Z M11.9292913,18.8190963 L11.142406,21.3160162 C11.0768323,21.5788499 10.8145372,21.7759752 10.5522421,21.7759752 L7.07683228,21.7759752 C6.68338965,21.7759752 6.42109457,21.4474331 6.42109457,21.118891 L6.42109457,20.9874741 L9.17519293,10.605544 C9.2407667,10.4741271 9.37191424,10.3427103 9.50306179,10.3427103 C9.6997831,10.3427103 9.83093064,10.4741271 9.83093064,10.605544 L11.9292913,18.8190963 Z M19.6669962,18.6219711 L19.2079798,20.0018479 C19.142406,20.1332647 19.0768323,20.1989731 18.9456847,20.1989731 C18.8145372,20.1989731 18.7489634,20.1332647 18.6833897,20.0018479 L16.3883077,11.9854208 L16.8473241,10.3427103 C16.8473241,10.2112934 16.9784716,10.145585 17.1096192,10.145585 C17.2407667,10.145585 17.3719142,10.2112934 17.3719142,10.3427103 L19.6669962,18.6219711 Z"/>
  </g>
</svg>

<svg xmlns="http://www.w3.org/2000/svg" width="32" height="32" viewBox="0 0 32 32"><g fill="none"><circle cx="16" cy="16" r="16" fill="#7F368A"/><path fill="#FFF" d="M25.569 21.316c.065.263-.197.394-.394.329h-3.278c-.197 0-.328-.066-.46-.132-.196-.066-.327-.328-.393-.591v-.066L17.962 9.49c-.065 0-.262.197-.328.197-.065.065-.197.131-.262.065-.131-.065-.197-.262-.131-.394.13-.328.459-.526.787-.591.393-.066.721-.066 1.114-.066h2.427c.196 0 .393 0 .59.066.197.131.262.394.328.591.13.46.196.92.328 1.38l1.573 5.914.59 2.365c.197.723.46 1.512.59 2.3zm-7.607 0c.066.263-.197.394-.393.329H14.29c-.197 0-.328-.066-.46-.132-.196-.066-.327-.328-.393-.591v-.066L10.356 9.49c-.066 0-.263.197-.328.197-.066.065-.197.131-.263.065-.13-.065-.196-.262-.13-.394.13-.328.458-.526.786-.591.394-.066.721-.066 1.115-.066h2.426c.197 0 .394 0 .59.066.197.131.263.394.328.591.131.46.197.92.328 1.38l1.574 5.914.59 2.365c.197.723.459 1.512.59 2.3zm-6.033-2.497l-.787 2.497a.63.63 0 0 1-.59.46H7.077a.658.658 0 0 1-.656-.657v-.132l2.754-10.381c.066-.132.197-.263.328-.263.197 0 .328.131.328.263l2.098 8.213zm7.738-.197l-.459 1.38c-.066.131-.131.197-.262.197s-.197-.066-.263-.197l-2.295-8.017.46-1.642c0-.132.13-.197.262-.197.13 0 .262.065.262.197l2.295 8.279z"/></g></svg>
